!!!!SEGMENT: pl-sa--590-a-ix-70_anonim--gorzkie-lzale.krn
!!!cenid: 17xx:1357
!!!COM: Anonim
!!!COM-rismid: pe30004985
!!!CDT:
!!!CNT:
!!!OTL: Gorzkie żale
!!!PDT:
!!!AGN:
!!!SMS-siglum: PL-SA
!!!SMS-shelfmark: 590/A IX 70
!!!SMS-shelfwork: W
!!!SMS-variant:
!!!SMS-altvar:
!!!NIFC-rismid: 1001069974
!!!URL-scan: http://bc.bdsandomierz.pl/dlibra/publication/1399/edition/1367/content
!!!ONB-nifc:
!!!AIN: 1 organ
!!!key: c
**kern	**kern
*part1	*part1
*staff2	*staff1
*I"[Organo]	*I"[Organo]
*I'	*
*Iorgan	*Iorgan
*ICklav	*ICklav
*clefF4	*clefG2
*k[a-b-e-]	*k[b-e-a-]
*c:	*c:
*M4/4	*M4/4
*met(c)	*met(c)
=1	=1
*2\right	*2\right
4C/	4ee- 4cc\
4C/	8ee-L 8cc\
.	(32ff\LL
.	32ee-\
.	32dd\
.	32cc\JJJ)
4D 4BBn 4GG/	8ddL 8bn\
.	16bL 16g\
.	16ccJJ 16a-\
4D 4BB 4GG/	4dd 4bn\
=2	=2
4D\	4ff 4dd\
4E-\	16gg\LL
.	16ff\
!	!LO:N:vis=16
.	32ee-\L
!	!LO:N:vis=16
.	32dd\
.	32cc\
.	32b-\JJJ
4F\	8ccL 8a-\
.	16a-L 16f\
.	16b-JJ 16g\
4FF/	4cc 4a-\
=3	=3
2E-\	4gg 4ee-\
.	8ggL 8ee-\
.	8ffJ 8dd\
8A-\L	4ee- 4cc\
8B-\	.
8A-\	4ee- 4cc\
8G\J	.
=4	=4
2F\	4ff 4dd\
.	16ee-LL 16cc\
.	32ff\L
.	32ee-\
.	32dd\
.	32cc\JJJ
.	16ryy
!LO:TX:t=P:problem=mixed beam	!
8G\L	8ddL 8bn\
8GG/	16bL 16g\
.	16ccJJ 16a-\
8BBn/	4dd 4b\
8GG/J	.
=5	=5
2C/	4ee- 4cc\
.	8ee-L 8cc\
.	8ddJ 8b-X\
4F\	4cc 4a-\
4FF/	4cc 4a-\
=6	=6
8F\L	4cc 4a-\
8E-\	.
8D-X\	4dd-X 4b-\
8E-\J	.
4F\	4cc 4a-\
4FF/	32dd-X\LLL
.	32cc\
.	32b-\
.	32a-\
.	32g\
.	32f\JJJ
*	*Xtuplet
!	!LO:N:vis=24
.	48f/LLL
!	!LO:N:vis=24
.	48g/
!	!LO:N:vis=24
.	48a-/JJJ
=7	=7
1F 1D 1BB-	1b- 1f 1d
!!linebreak:original
=8:|!;	=8:|!;
2r	2r
2BB-/	2dd 2b-\
=9	=9
2F\	4cc 4a-\
.	8a-L 8f\
.	8b-J 8g\
4F\	4cc 4a-\
4C/	4ee- 4cc\
=10	=10
2G\	4dd 4bn\
.	8bL 8g\
.	8ccJ 8a-\
2GG/	2dd 2bn\
=11	=11
2r	2r
8G\L	4dd 4bn\
8F\	.
8E-\	4dd 4b\
8D\J	.
=12	=12
2C/	2ee- 2cc\
2r	2r
=13	=13
8F\L	4cc 4a-\
8E-\	.
8D\	4cc 4a-\
8C\J	.
2BB-/	2dd 2b-\
=14	=14
4E-\	4b-\
4D\	8cc\L
.	8dd\J
4C\	4ee- 4cc\
8A-\L	4ee- 4cc\
8F\J	.
=15	=15
1G	1dd 1bn
=16	=16
1C	1ee-
!!linebreak:original
=17:|!;	=17:|!;
*M4/4	*M4/4
*met(c)	*met(c)
!	!LO:TX:t=Ach Cięzka Żalość
2E-\	2gg 2ee-\
4BB-/	4ff 4dd\
4E-/	4gg 4ee-\
=18	=18
8C\L	2ee- 2cc\
8D\	.
8E-\	.
8F\J	.
2GG/	2dd 2bn\
=19	=19
4.E-\	4.gg 4.ee-\
8E-\	8gg 8ee-\
4F\	4aa- 4ff\
8G\L	4gg 4ee-\
8A-\J	.
=20	=20
!LO:TX:t=P:problem=mixed beam	!
8B-\L	2ff 2dd\
8A-\	.
8B-\	.
8BB-/J	.
2E-\	2ee- 2b- 2g\
=21	=21
8BB-/L	2ff 2dd\
8C/	.
8D/	.
8BB-/J	.
2BB-/	4bb-\
.	4ff 4dd\
=22	=22
8E-\L	2gg 2ee-\
8F\	.
8G\	.
8A-\J	.
2BB-/	2ff 2dd\
=23	=23
4.A-\	4.ee- 4.cc\
8G\	8ff 8dd\
4F\	4gg 4ee-\
8E-\L	4ee- 4cc\
8F\J	.
=24	=24
!LO:TX:t=P:problem=mixed beam	!
8G\L	2dd 2bn\
8F\	.
8G\	.
8GG/J	.
2C/	2cc 2g 2e-\
!!linebreak:original
=25:||:;	=25:||:;
2GG/	2dd 2bn\
4E-\	4gg 4ee-\
4BBn/	4ff 4dd\
=26	=26
8C\L	2ee- 2cc\
8D\	.
8E-\	.
8F\J	.
2GG/	2dd 2bn\
=27	=27
4.E-\	4gg 4ee-\
.	8ryy
8E-\	8gg 8ee-\
4F\	4aa- 4ff\
8G\L	4gg 4ee-\
8A-\J	.
=28	=28
2BB-/	2ff 2dd\
2E-\	2ee- 2b- 2g\
=29	=29
2GG/	2dd 2bn\
4E-\	4gg 4ee-\
4BBn/	4ff 4dd\
=30	=30
8C\L	2ee- 2cc\
8D\	.
8E-\	.
8F\J	.
2GG/	2dd 2bn\
=31	=31
4.A-\	4.ee- 4.cc\
8G\	8ee- 8cc\
4F\	4ff 4dd\
8E-\L	4ee- 4cc\
8F\J	.
=32	=32
!LO:TX:t=P:problem=mixed beam	!
8G\L	2dd 2bn\
8F\	.
8G\	.
8GG/J	.
2C/	2cc 2g 2e-\
==:||;	==:||;
*-	*-
!!!system-decoration: {(s1,s2)}
!!!ENC: Katarzyna Serwa
!!!END: 2022-02-12
!!!ENC: Kamil Watkowski
!!!END: 2020-11-30
